X:889
T:Gerry Cronin's
T:Larry Redican's
O:ireland
C:Larry Redican (1908-1975)
R:reel
D:Sean Smyth: The Blue Fiddle
Z:id:hn-reel-513
M:C|
K:C
c2Bc AGED|CA,~A,2 G,A,CD|EGcd ecdc|Addc dfed|
c2Bc AGED|CA,~A,2 G,A,CD|EGce dBcA|GEDF ECEG:|
|:c2gc acgc|fdec dcAc|Gc~c2 Gcea|gece d2eg|
ae~e2 gede|cdec dcAG|EGce dBcA|GEDF ECEG:|
